X:1
T: Ho Ro, My Nut Brown Maiden
C:
R:Reel
Q: 232
K:D
M:4/4
L:1/8
|:A2|d3c B2 A2|d4 A2 d2|f3d g2 f2|f2 e2 e2 g2|
fa3 fa3|A4 d2 e2|f3f g2 e2|d4 d2:|
|:f2|a3b a2 f2|a4 f2 fg|a2 ab a2 f2|e4-e2 g2|
fa3 fa3|A4 d2 e2|f3f g2 e2|d4 d2:|
